!!!COM: Dueto, Antonio
!!!CDT:
!!!OTL: Amor l'alma m'allaccia
!!!PTL: Il secondo libro de madrigali a cinque voci
!!!PPP: Venice
!!!PPR: Angelo Gardano
!!!PDT: 1585
!!!PUB-format:
!!!RISM: D 3654
!!!rime: 48
!!!AGN: Madrigal
!!!SCT: Trm0048c
!!!SCA: Trm0048c
!!!original-voices: 5
!!!extant-voices: 2
!!!complete: N
!!!final: C
**kern	**text	**kern	**text
*part2	*part2	*part1	*part1
*staff2	*staff2	*staff1	*staff1
*I"Quinto	*	*I"Canto	*
*I'V	*	*I'C	*
*oclefC1	*	*oclefG2	*
*clefG2	*	*clefG2	*
*k[]	*	*k[]	*
*omet(C|)	*	*omet(C|)	*
*M2/1	*	*M2/1	*
=1	=1	=1	=1
!!LO:TX:a:t=[Prima parte.]
*	*	*pline:1	*pline:1
2r	.	1cc	A-
*pline:1	*pline:1	*	*
2.cc	A-	.	.
.	.	1dd	-mor
8bL	.	.	.
8aJ	.	.	.
2b	.	.	.
=2	=2	=2	=2
2cc	-mor	2ee	l'al-
2a	l'al-	1cc	-ma
4a	-ma	.	.
4a	m'al-	.	.
[2g	-lac-	2cc	m'al-
=3	=3	=3	=3
4g]	.	1cc	-lac-
8f#iL	.	.	.
8eJ	.	.	.
2f#i	.	.	.
2g	-cia	2b	-cia
*pline:2	*pline:2	*pline:2	*pline:2
2b	Di	2dd	Di
=4	=4	=4	=4
0cc	dol-	1.ff	dol-
.	.	[2ee	-ci as-
=5	=5	=5	=5
2b	-ci as-	2ee]	.
1a	-pre	1dd	-pre
[2g	ca-	2cc	ca-
=6	=6	=6	=6
2g]	.	1dd	-te-
2f#i	-te-	.	.
1g	-ne:	1dd	-ne:
=7	=7	=7	=7
4r	.	0r	.
*pline:3a	*pline:3a	*	*
2g	Né	.	.
4e	mi	.	.
4e	do-	.	.
2e	-glio io	.	.
4f#X	per	.	.
=8	=8	=8	=8
4g	ciò,	2r	.
*pline:3ar	*pline:3ar	*	*
2dd	<Né	.	.
.	.	4r	.
*	*	*pline:3a	*pline:3a
4b	mi	2gg	Né
2b	do-	.	.
.	.	4ee	mi
[2cc	-glio io	2ee	do-
=9	=9	=9	=9
2cc]	.	2cc	-glio io
2a	per	2dd	per
2b	ciò,>	2ee	ciò,
*	*	*pline:3	*pline:3
4r	.	[2cc	<Né
*line:3ar	*line:3ar	*	*
[4e	<Né	.	.
=10	=10	=10	=10
4e]	.	4cc]	.
4f	mi	4a	mi
2f	do-	2a	do-
2f	-glio io	2dd	-glio io
2g	per	[2dd	per
=11	=11	=11	=11
2a	ciò,>	4dd]	.
.	.	2cc	ciò,>
2r	.	.	.
.	.	4a	ma
1r	.	4b	ben
.	.	2cc	l'ac-
.	.	4b	-cu-
=12	=12	=12	=12
1r	.	2cc	-so
.	.	2r	.
*pline:4a	*pline:4a	*	*
2.cc	Che	1r	.
4b	mi	.	.
=13	=13	=13	=13
*	*	*pline:4	*pline:4
2a	le-	2.ff	Che
4g	-ghi,	.	.
*pline:4	*pline:4	*	*
2cc	<Che	4ee	mi
.	.	2dd	le-
4b	mi	.	.
4a	le-	[2dd	-gh'ed
[4a	-gh>'ed	.	.
=14	=14	=14	=14
4a]	.	4dd]	.
4a	af-	4cc	af-
2g	-fre-	8bL	-fre-
.	.	8a	.
.	.	8b	.
.	.	8ccJ	.
4f	-ne	1dd	.
*pline:5a	*pline:5a	*	*
4g	La	.	.
4.a	lin-	.	.
8b	.	.	.
=15	=15	=15	=15
2cc	.	4ee	-ne
*	*	*pline:5a	*pline:5a
.	.	2ee	La
2g	-gua,	.	.
.	.	2dd	lin-
1r	.	.	.
.	.	8ccL	.
.	.	8bJ	.
.	.	2a	.
=16	=16	=16	=16
4r	.	2dd	-gua,
*pline:4r	*pline:4r	*	*
2g	Che	.	.
.	.	4r	.
*	*	*pline:4r	*pline:4r
4f	mi	2cc	Che
4e	le-	.	.
2d	-gh'ed	4b	mi
.	.	2a	le-
4dd	af-	.	.
=17	=17	=17	=17
4b	-fre-	4ee	-gh'ed
4cc	-ne	4ee	af-
*pline:5	*pline:5	*	*
2a	La	2ff#X	-fre-
2b	lin-	2gg	-ne
*	*	*pline:5	*pline:5
[2a	.	2ee	La
=18	=18	=18	=18
2a]	.	1ee	lin-
2g#X	.	.	.
1a	-gua	1cc#X	-gua
=19	=19	=19	=19
2r	.	2r	.
2f	ac-	2a	ac-
2f	-ciò	2a	-ciò
[2e	ch'io	2g	ch'io
=20	=20	=20	=20
2e]	.	1f	tac-
1d	tac-	.	.
.	.	1e	-cia,
2c#X	-cia,	.	.
=21	=21	=21	=21
0r	.	2r	.
*	*	*pline:6	*pline:6
.	.	2.a	An-
.	.	4a	-zi
.	.	2b	Ma-
=22	=22	=22	=22
1r	.	1cc	-don-
2r	.	2b	-na
*pline:6b	*pline:6b	*	*
[2f	ti-	[2dd	ti-
=23	=23	=23	=23
2f]	.	2dd]	.
2f	-mi-	2dd	-mi-
1e	-do e	2b	-do e
.	.	[2cc	con-
=24	=24	=24	=24
1a	con-	2cc]	.
.	.	2.dd	-fu-
[1g	-fu-	.	.
.	.	4cc	.
.	.	[2cc	.
=25	=25	=25	=25
1g]	.	2cc]	.
.	.	2b	.
1g	-so	1cc	-so
=26	=26	=26	=26
4r	.	1r	.
*pline:7	*pline:7	*	*
4cc	E in	.	.
4cc	mia	.	.
4cc	rag-	.	.
*	*	*pline:7	*pline:7
2.b	-gion	2gg	E in
.	.	4gg	mia
4cc	de-	4gg	rag-
=27	=27	=27	=27
2a	-lu-	2ff#X	-gion
2g	-so,	2gg	de-
2r	.	2ee	-lu-
4r	.	4dd	-so,
*pline:7r	*pline:7r	*pline:7r	*pline:7r
4g	<E in	4dd	<E in
=28	=28	=28	=28
4g	mia	4ee	mia
4g	rag-	4ee	rag-
2f#X	-gion	4cc	-gion
.	.	4a	de-
4g	de	2dd	-lu-
4.g	lu-	.	.
.	.	4ee	-so,>
8fnXiL	.	.	.
*	*	*pline:7r	*pline:7r
8e	.	4cc	E in
8dJ	.	.	.
=29	=29	=29	=29
2c	.	4cc	mia
.	.	4cc	rag-
2d	-so,>	2b	-gion
2r	.	2cc	de-
4r	.	2a	-lu-
*pline:7r	*pline:7r	*	*
4dd	E in	.	.
=30	=30	=30	=30
4dd	mia	4g	-so,
*	*	*pline:7r	*pline:7r
4dd	rag-	4gg	<E in
2cc#X	-gion	4gg	mia
.	.	4gg	rag-
2dd	de-	2ff#X	-gion
2b	-lu-	2gg	de-
=31	=31	=31	=31
2g	-so,	0ee	-lu-
*pline:7br	*pline:7br	*	*
2ccnXi	de	.	.
1cc	lu-	.	.
=32	=32	=32	=32
0b	-so.	0dd	-so.>
=||33	=||33	=||33	=||33
!!LO:TX:a:t=Seconda parte.
*pline:8	*pline:8	*pline:8	*pline:8
2g	Scio-	2cc	Scio-
4a	-gli,	4cc	-gli,
4a	pie-	4cc	pie-
2b-X	-to-	2dd	-to-
2a	-so A-	2cc	-so A-
=34	=34	=34	=34
2g	-mo-	2b	-mo-
2.e	-re,	4.a	-re,
.	.	8b	.
.	.	2cc	.
*pline:9a	*pline:9a	*	*
4cc	La	.	.
*	*	*pline:9a	*pline:9a
4.cc	lin-	2ee	La
8bnXi	.	.	.
=35	=35	=35	=35
1a	.	1dd	lin-
2b	-gua,	2dd	-gua,
4r	.	4r	.
*pline:8	*pline:8	*pline:8	*pline:8
4b	<Scio-	4dd	<Scio-
=36	=36	=36	=36
4b	-gli,	4ee	-gli,
4cc	pie-	4ee	pie-
1cc	-to-	1ff	-to-
2dd	-so A-	2ff	-so A-
=37	=37	=37	=37
1b	-mo-	1ee	-mo-
2cc	-re,	2ee	-re,
*pline:9	*pline:9	*pline:9	*pline:9
2a	La	2cc	La
=38	=38	=38	=38
*lig	*	*	*
1a	lin-	4dd	lin-
.	.	4cc	.
.	.	2.cc	.
1g	.	.	.
*Xlig	*	*	*
.	.	8bL	.
.	.	8aJ	.
.	.	2b	.
=39	=39	=39	=39
4g	-gua,>	4cc	-gua,>
4cc	e	4ee	e
4cc	se	4ee	se
4cc	non	4ee	non
2cc	vuo-	2ee	vuo-
2b	-i	2dd	-i
=40	=40	=40	=40
*pline:10	*pline:10	*pline:10	*pline:10
4a	Che	4cc#X	Che
4a	mi	4cc#i	mi
2a	strin-	4cc#i	strin-
.	.	2dd	-g'un
2b	-g'un	.	.
.	.	2gg	sol
2dd	sol	.	.
.	.	4ff	men
=41	=41	=41	=41
2b	men	4ee	de'
.	.	2ee	lac-
4b	de'	.	.
2cc	lac-	4ee	-ci
.	.	1dd	tuo-
4b	-ci	.	.
2a	tuo-	.	.
=42	=42	=42	=42
2b	-i,	2dd	-i,
4r	.	2r	.
*pline:11	*pline:11	*	*
2g	Tan-	.	.
.	.	2r	.
4f	-ti	.	.
*	*	*pline:11a	*pline:11a
4e	n'ag-	[2cc	Tan-
[4g	-giun-	.	.
=43	=43	=43	=43
4g]	.	4cc]	.
4d	-gi in	4b	-ti
4a	quel-	2a	n'ag-
4cc	-la	.	.
4cc	ve-	4.dd	-giun-
4b	-ce al	.	.
.	.	8ee	.
4.a	co-	4ff	.
.	.	4cc	-gi,
8g	.	.	.
=44	=44	=44	=44
2f	.	1r	.
4e	-re,	.	.
*pline:11	*pline:11	*	*
2ee	<Tan-	.	.
*	*	*pline:11	*pline:11
.	.	2gg	<Tan-
4dd	-ti	.	.
2cc	n'ag-	4ff	-ti
.	.	[4ee	n'ag-
=45	=45	=45	=45
2ee	-giun-	4ee]	.
.	.	2gg	-giun-
4b	-gi in	.	.
2dd	quel-	4dd	-gi> in
.	.	2ff	quel-
2cc	-la	.	.
.	.	2ee	-la
[4b	ve-	.	.
=46	=46	=46	=46
4b]	.	4dd	ve-
4cc	-ce al	2cc	-ce al
2dd	co-	.	.
.	.	4b	co-
2ee	-re,>	2cc	-re,
2r	.	2r	.
=47	=47	=47	=47
*	*	*pline:11ar	*pline:11ar
4r	.	1gg	Tan-
2cc	<Tan-	.	.
4b	-ti	.	.
4a	n'ag-	4ff	-ti
2cc	-giun-	4ee	n'ag-
.	.	2gg	-giun-
4b	-gi in	.	.
=48	=48	=48	=48
2a	quel-	2cc	-gi,
2g	-la	2r	.
2.f	ve-	2r	.
.	.	4r	.
*	*	*pline:11ar	*pline:11ar
4e	-ce al	4cc	<Tan-
=49	=49	=49	=49
2d	co-	4b	-ti
.	.	4a	n'ag-
2c	-re,>	2.cc	-giun-
2r	.	.	.
.	.	4g	-gi,>
[2cc	Tan-	2r	.
=50	=50	=50	=50
4cc]	.	4r	.
*	*	*pline:11ar	*pline:11ar
4b	-ti	4gg	Tan-
4a	n'ag-	4ff	-ti
2cc	-giun-	4ee	n'ag-
.	.	2gg	-giun-
4b	-gi in	.	.
4a	quel-	[2cc	-gi,
4a	-la	.	.
=51	=51	=51	=51
2g	ve-	2cc]	.
2g	-ce al	2r	.
*	*	*pline:11r	*pline:11r
2a	co-	2.cc	Tan-
2d	-re,	.	.
.	.	4b	-ti
=52	=52	=52	=52
1r	.	4a	n'ag-
.	.	2cc	-giun-
.	.	4b	-gi in
2r	.	4a	quel-
.	.	4a	-la
4r	.	4a	ve-
*pline:11	*pline:11	*	*
4g	<Tan-	4g	-ce al
=53	=53	=53	=53
2f	-ti	2dd	co-
2e	n'ag-	2g	-re,
4g	-giun-	4r	.
*	*	*pline:11r	*pline:11r
4d	-gi in	4gg	<Tan-
4f	quel-	4ff	-ti
4c	-la	4ee	n'ag-
=54	=54	=54	=54
8cL	ve-	2gg	-giun-
8d	.	.	.
8e	.	.	.
8fJ	.	.	.
4g	.	4dd	-gi in
4cc	-ce al	2ff	quel-
4cc	co-	.	.
4g	-re,>	4ee	-la
2r	.	[2dd	ve-
=55	=55	=55	=55
2r	.	2dd]	.
2g	al	1cc	-ce al
1g	co-	.	.
.	.	2b	co-
=56	=56	=56	=56
0gl	-re.	0ccl	-re.>
==	==	==	==
*-	*-	*-	*-
!!!system-decoration: [*]
!!!RDF**kern: i = editorial accidental
!!!RDF**kern: l = terminal long
!!!ENC: Emiliano Ricciardi
!!!END: 2018
!!!EED: Ricciardi, Emiliano
!!!EEV: 2018/09/18
!!!YEC: Copyright 2018 Emiliano Ricciardi, All Rights Reserved
!!!ONB: Translated from MusicXML on 2018/09/18 and edited by Craig Stuart Sapp
!!@@BEGIN:	VERSEDATA
!!@SOLERTI:	48
!!@CATALOGNUM:	Trm0048
!!@LAST_MODIFIED: 2020/07/12
!!@TITLE:		Amor l'alma m'allaccia
!!@GENRE:		madrigale
!!@MANUSRC:	Amz, Brn, C, E<sub>1</sub>, F<sub>2</sub>, Flc<sub>2</sub>, P<sub>2</sub>, Ts<sub>1</sub>, V<sub>8</sub>, V<sub>13/TS1</sub>
!!@PRINTSRC:	4, 8, 9, 11, 12, 13, 15, 20, 24, 29, 33, 67, 145
!!@@BEGIN:	VERSES
!!@ABOUTIT:	Non avendo ardire di parlare con la sua donna nel ballo, prega Amore che sciolga i legami de la lingua e raddoppi quelli del core.
!!@ABOUTEN:	Not having the courage to talk to his lady while dancing, he begs Love to loosen the ties around his tongue and to strengthen those around his heart.
!!@EDITOR:	Solerti, Angelo
!!@EDITION_TITLE: Le Rime di Torquato Tasso
!!@EDITION_LOC:	Bologna
!!@EDITION_PUB:	Romagnoli-Dall’Acqua
!!@EDITION_DATE:  1898-1902
!!@EDITION_VOL:	2
!!@EDITION_PAGE:  72
!!@TRANSLATOR:	Emiliano Ricciardi and Amyrose McCue Gill
!!@VERSE:
!!	Amor l'alma m'allaccia
!!	Di dolci aspre catene:
!!	Non mi doglio io per ciò, ma ben l'accuso
!!	Che mi leghi ed affrene
!!	La lingua a ciò ch'io taccia
!!	Anzi a madonna timido e confuso
!!	E 'n mia ragion deluso.
!!	Sciogli, pietoso Amore,
!!	La lingua, e se non vuoi
!!	Che mi stringa un sol men de' lacci tuoi,
!!	Tanti n'aggiungi in quella vece al core.
!!@TVERSE:
!!	Love binds my soul
!!	With sweet and sour chains:
!!	I am not pained by it, but well I acknowledge
!!	That it ties me and halts
!!	My tongue so that I am silent
!!	Before my lady, shy and confused
!!	And in my reason dissatisfied.
!!	Unchain, merciful Love,
!!	My tongue, and if you do not want
!!	That even one less of your chains grip me,
!!	Add many instead to my heart.
!!@MVERSE:
!!	A|mor||  l'al||ma m'al|lac||cia					=a
!!	Di dol||ci_as||pre| ca|te||ne:					=b
!!	Non mi do||gli_ io per ciò||, ma ben l'ac|cu||so		=C+
!!	Che mi le||ghi_ed af|fre||ne					=b++
!!	La lin|gua_a ciò|| ch'io tac||cia				=a
!!	An|zi_a m|adon||na ti||mi|do_e con|fu||so			=C
!!	E 'n mia ra|gion|| de|lu||so.					=c
!!	Sci||ogli|, pie|to||so_A|mo||re,				=d++
!!	La lin||gua,_e se non vuo||i					=e+
!!	Che mi strin||ga_un sol men de' lac||ci tuo||i,			=E
!!	Tan||ti n'ag|giun||gi_in quel||la ve|ce al co||re.		=D
!!
!!@@END:		VERSES
!!@OTHER_CRIT_ED:   Torquato Tasso, <i>Rime d’amore (secondo il codice
!!		Chigiano L VIII 302)</i>, eds. Franco Gavazzeni and
!!		Vercingetorige Martignone, vol. 4 of <i>Edizione
!!		Nazionale delle opere di Torquato Tasso</i>
!!		(Alessandria: Edizioni Dell’Orso, 2004), 35.
!!@ATTRIBUTION_ABOUT:	Secure
!!		<br>
!!		Among other authoritative sources (see Literary
!!		Sources), this poem appears in the autograph Chigiano
!!		L.VIII.302 (Biblioteca Vaticana, Rome), compiled
!!		around 1584&ndash;85.
!!@DATING:
!!@DEDICATEE:	Bendidio, Lucrezia
!!@COMMENTARY:    In the autograph Chigiano L.VIII.302 (Biblioteca
!!		Vaticana, Rome), this poem appears among those
!!		addressed to Tasso’s <i>primo amore</i> (first love),
!!		identified as the Ferrarese singer and noblewoman
!!		<a target="_new" href="http://www.treccani.it/enciclopedia/lucrezia-bendidio_%28Dizionario-Biografico%29">Lucrezia Bendidio</a>
!!		(1547&ndash;after 1584). The poem itself, however, does not mention Lucrezia.
!!@@END:		VERSEDATA
!!@@BEGIN:	SETTING
!!@CATALOGNUM:	Trm0048c
!!@RIMETITLE:	Amor l'alma m'allaccia
!!@SOLERTI:	48
!!@COMPOSER:	Dueto, Antonio
!!@PRINCEPSTITLE:	Il secondo libro de madrigali a cinque voci
!!@PRINCEPSLOC:	Venetia
!!@NORMLOC:	Venice
!!@NORMPUB:	Angelo Gardano
!!@NORMPUBSHORT:	Gardano
!!@PRINCEPSPUB:	Gardano
!!@PRINCEPSYEAR:	1585
!!@PRINCEPSRISM:	D 3654
!!@REPRINTS:	
!!@OVOICES:	5
!!@EXTANTVOICES:	2
!!@PARTBOOKS:	
!!@EXTPARTBOOKS:	
!!@OCLEFS:	G2,C1
!!@OMENSURATION:	Cut-C
!!@OKEYSIG:	-
!!@FINAL:	C
!!@TIMPEDITOR:	Ricciardi, Emiliano
!!@NOTE:		
!!@@END:		SETTING
